X:1
T:3a. Kurz ist der Schmerz, und ewig ist die Freude.
T:3a. Kurz ist der Schmerz, und ewig ist die Freude.
T:Ludwig van Beethoven Componirt für Naue, am 23. November 1813. 
T:Dreistimmiger Canon.
C:Ludwig van BeethovenComponirt für Naue, am 23. November 1813.
%%score [ 1 2 3 ]
L:1/8
M:3/4
K:Ab
V:1 treble nm="1. Stimme."
V:2 treble nm="2. Stimme."
V:3 treble nm="3. Stimme."
V:1
!p! c2 | z2 c2 c2 | =B2 z2 _B2 | =A2 z2 _A2 | (A2 G) z z c | !>!f4 e2 | !>!e4 =d2 |!f! g3 g f =e | %8
w: Kurz|ist der|Schmerz, der|Schmerz, der|Schmerz, _ und|e- wig,|e- wig,|e- wig ist die|
 g2 f2 z2 |!p! F2 z2 E E | =D2 z2 _D2 | C2 z2 =B,2 | C3 z _B2 | !>!=A4 A2 | !>!B4 B,2 | %15
w: Freu- de.|Kurz ist der|Schmerz, der|Schmerz, der|Schmerz, und|e- wig,|e- wig,|
!f! B,3 B, C C | F2 F2 |: z2 |!p! A2 z2 G G | F2 z2 F2 | F2 z2 F2 | (F2 =E) z z2 | z c !>!c2 c2 | %23
w: e- wig ist die|Freu- de.||Kurz ist der|Schmerz, der|Schmerz, der|Schmerz, *|und e- wig,|
 !>!c4 B2 |!f! B3 B =A G | B2 =A2!p! c2 | z2 c2 c2 | =B2 z2 _B2 | =A2 z2 _A2 | (A2 G) z z c | %30
w: e- wig,|e- wig ist die|Freu- de. Kurz|ist der|Schmerz, der|Schmerz, der|Schmerz, _ und|
 !>!f4 e2 | !>!e4 =d2 |!f! g3 g f =e | g2 f2 z2 |!p! F2 z2 E E | =D2 z2 _D2 | C2 z2 =B,2 | %37
w: e- wig,|e- wig,|e- wig ist die|Freu- de.|Kurz ist der|Schmerz, der|Schmerz, der|
 C3 z _B2 | !>!=A4 A2 | !>!B4 B,2 |!f! B,3 B, C C | F2 F2 :| %42
w: Schmerz, und|e- wig,|e- wig,|e- wig ist die|Freu- de.|
V:2
 z2 | z6 | z6 | z6 | z6 | z6 | z6 | z6 | z2 z2!p! c2 | z2 c2 c2 | =B2 z2 _B2 | =A2 z2 _A2 | %12
w: ||||||||Kurz|ist der|Schmerz, der|Schmerz, der|
 (A2 G) z z c | !>!f4 e2 | !>!e4 =d2 |!f! g3 g f =e | g2 f2 |: z2 |!p! F2 z2 E E | =D2 z2 _D2 | %20
w: Schmerz, _ und|e- wig,|e- wig,|e- wig ist die|Freu- de.||Kurz ist der|Schmerz, der|
 C2 z2 =B,2 | C3 z _B2 | !>!=A4 A2 | !>!B4 B,2 |!f! B,3 B, C C | F2 F2 z2 |!p! A2 z2 G G | %27
w: Schmerz, der|Schmerz, und|e- wig,|e- wig,|e- wig ist die|Freu- de.|Kurz ist der|
 F2 z2 F2 | F2 z2 F2 | (F2 =E) z z2 | z c !>!c2 c2 | !>!c4 B2 |!f! B3 B =A G | B2 =A2!p! c2 | %34
w: Schmerz, der|Schmerz, der|Schmerz, *|und e- wig,|e- wig,|e- wig ist die|Freu- de. Kurz|
 z2 c2 c2 | =B2 z2 _B2 | =A2 z2 _A2 | (A2 G) z z c | !>!f4 e2 | !>!e4 =d2 |!f! g3 g f =e | g2 f2 :| %42
w: ist der|Schmerz, der|Schmerz, der|Schmerz, _ und|e- wig,|e- wig,|e- wig ist die|Freu- de.|
V:3
 z2 | z6 | z6 | z6 | z6 | z6 | z6 | z6 | z6 | z6 | z6 | z6 | z6 | z6 | z6 | z6 | z4 |:!p! c2 | %18
w: |||||||||||||||||Kurz|
 z2 c2 c2 | =B2 z2 _B2 | =A2 z2 _A2 | (A2 G) z z c | !>!f4 e2 | !>!e4 =d2 |!f! g3 g f =e | %25
w: ist der|Schmerz, der|Schmerz, der|Schmerz, _ und|e- wig,|e- wig,|e- wig ist die|
 g2 f2 z2 |!p! F2 z2 E E | =D2 z2 _D2 | C2 z2 =B,2 | C3 z _B2 | !>!=A4 A2 | !>!B4 B,2 | %32
w: Freu- de.|Kurz ist der|Schmerz, der|Schmerz, der|Schmerz, und|e- wig,|e- wig,|
!f! B,3 B, C C | F2 F2 z2 |!p! A2 z2 G G | F2 z2 F2 | F2 z2 F2 | (F2 =E) z z2 | z c !>!c2 c2 | %39
w: e- wig ist die|Freu- de.|Kurz ist der|Schmerz, der|Schmerz, der|Schmerz, *|und e- wig,|
 !>!c4 B2 |!f! B3 B =A G | B2 =A2 :| %42
w: e- wig,|e- wig ist die|Freu- de.|

